images/Traffic_Sign_GR_-_KOK_2009_-_P-34.svg

<svg width="460" height="655" fill="none" xmlns="http://www.w3.org/2000/svg"><path fill="#0C479D" d="M0 0h460v655H0z"/><path d="M53 505V150h355v355H53z" fill="#fff"/><path fill-rule="evenodd" clip-rule="evenodd" d="M219.543 171.388c-15.394-2.103-29.829 4.492-37.764 16.34l-3.809 5.675c-16.913 38.802-35.891 76.715-36.713 118.928L141 324.34l4.284 33.356 12.184 35.649 29.608 56.101 9.169 1.786c-.243 11.977 2.414 23.73 14.758 30.231 10.981 5.832 18.087 3.249 30.972.766 14.439-2.803 27.448-4.971 42.141-4.269 11.107.54 21.58 2.707 32.463 4.62 1.745-2.232 4.159-3.794 3.205-6.5-1.809-5.098.129-1.529-12.502-4.016-24.18-4.812-48.649-4.076-72.797 1.306-9.296 2.072-17.197 2.231-23.545-5.255-2.378-2.834-6.698-12.424-2.473-14.241 4.186-1.784 1.168-.858 9.52.161 9.516 1.147 5.392 2.008 12.594-1.465 6.283-2.993 5.716-1.976 11.235.922 3.332-4.077 4.16-7.358 10.093-7.677 7.678-.415 15.167-7.997 14.435-15.035l-.282-2.488-31.545-50.146-19.639.256-5.08 7.011c-3.013-.286-8.728-1.784-10.156 1.754-.693 1.752 1.491 4.202 2.351 5.764-5.683-.09-9.012.543-13.772-2.388-5.715-3.505-3.301-.958-5.365-8.827l-1.714-6.563c1.714-30.199 4.127-60.051 2.696-90.255-1.207-26.089-2.888-15.641.923-31.636 2.409-10-.539-6.686 6.379-11.37 5.933-3.984 9.551-2.551 16.817-2.04l-.95 6.372c3.679-.161 8.248-1.752 10.438 1.274 2.633 3.634 15.199 1.023 19.611.831 6.091-17.747 12.408-34.919 16.09-53.203 3.046-15.2 7.105-14.434-4.188-20.262l-10.444.379-18.972-3.853.001-.002zm13.994 57.025-.667 3.281c-3.332-.635-5.519-.635-7.932-2.866-2.826-2.579-6.03-2.42-8.189-5.574-1.869-2.775-3.711-3.121-6.949-4.459-1.142-2.647-2.508-2.903 1.874-2.424 7.522.767 15.799 8.253 21.864 12.042h-.001zm-79.65 86.08c-.321 16.219 2.314 32.495 3.932 48.617l-1.491.161c-2.347-16.217-5.239-31.891-4.919-48.264.256-12.713.667-25.297 4.792-37.53l2.35-7.011c-1.842 14.656-4.378 29.313-4.664 44.029v-.002zm83.869 122.178c-3.683 2.231-6.378-.735-10.756.383-3.747.923-5.015.161-8.601-.958v-1.114c4.918-.639 7.679-3.82 12.662-3.345 5.398.51 11.521-3.789 15.422 1.593 2.32 3.249 2.572 2.232-2.505 2.167-4.984-.103-2.951-.766-6.253 1.274" fill="#000"/></svg>

<svg width="460" height="655" viewBox="0 0 460 655" fill="none" xmlns="http://www.w3.org/2000/svg">
<rect width="460" height="655" fill="#0C479D"/>
<path d="M53 505V150H408V505H53Z" fill="white"/>
<path fill-rule="evenodd" clip-rule="evenodd" d="M219.543 171.388C204.149 169.285 189.714 175.88 181.779 187.728L177.97 193.403C161.057 232.205 142.079 270.118 141.257 312.331L141 324.34L145.284 357.696L157.468 393.345L187.076 449.446L196.245 451.232C196.002 463.209 198.659 474.962 211.003 481.463C221.984 487.295 229.09 484.712 241.975 482.229C256.414 479.426 269.423 477.258 284.116 477.96C295.223 478.5 305.696 480.667 316.579 482.58C318.324 480.348 320.738 478.786 319.784 476.08C317.975 470.982 319.913 474.551 307.282 472.064C283.102 467.252 258.633 467.988 234.485 473.37C225.189 475.442 217.288 475.601 210.94 468.115C208.562 465.281 204.242 455.691 208.467 453.874C212.653 452.09 209.635 453.016 217.987 454.035C227.503 455.182 223.379 456.043 230.581 452.57C236.864 449.577 236.297 450.594 241.816 453.492C245.148 449.415 245.976 446.134 251.909 445.815C259.587 445.4 267.076 437.818 266.344 430.78L266.062 428.292L234.517 378.146L214.878 378.402L209.798 385.413C206.785 385.127 201.07 383.629 199.642 387.167C198.949 388.919 201.133 391.369 201.993 392.931C196.31 392.841 192.981 393.474 188.221 390.543C182.506 387.038 184.92 389.585 182.856 381.716L181.142 375.153C182.856 344.954 185.269 315.102 183.838 284.898C182.631 258.809 180.95 269.257 184.761 253.262C187.17 243.262 184.222 246.576 191.14 241.892C197.073 237.908 200.691 239.341 207.957 239.852L207.007 246.224C210.686 246.063 215.255 244.472 217.445 247.498C220.078 251.132 232.644 248.521 237.056 248.329C243.147 230.582 249.464 213.41 253.146 195.126C256.192 179.926 260.251 180.692 248.958 174.864L238.514 175.243L219.542 171.39L219.543 171.388ZM233.537 228.413L232.87 231.694C229.538 231.059 227.351 231.059 224.938 228.828C222.112 226.249 218.908 226.408 216.749 223.254C214.88 220.479 213.038 220.133 209.8 218.795C208.658 216.148 207.292 215.892 211.674 216.371C219.196 217.138 227.473 224.624 233.538 228.413H233.537ZM153.887 314.493C153.566 330.712 156.201 346.988 157.819 363.11L156.328 363.271C153.981 347.054 151.089 331.38 151.409 315.007C151.665 302.294 152.076 289.71 156.201 277.477L158.551 270.466C156.709 285.122 154.173 299.779 153.887 314.495V314.493ZM237.756 436.671C234.073 438.902 231.378 435.936 227 437.054C223.253 437.977 221.985 437.215 218.399 436.096V434.982C223.317 434.343 226.078 431.162 231.061 431.637C236.459 432.147 242.582 427.848 246.483 433.23C248.803 436.479 249.055 435.462 243.978 435.397C238.994 435.294 241.027 434.631 237.725 436.671" fill="black"/>
</svg>
